src/assets/Training/desk_studying.svg

<svg fill="none" height="125" viewBox="0 0 244 125" width="244" xmlns="http://www.w3.org/2000/svg" xmlns:xlink="http://www.w3.org/1999/xlink"><linearGradient id="a" gradientUnits="userSpaceOnUse" x1="96.4079" x2="112.159" y1="55.7271" y2="80.9875"><stop offset="0" stop-color="#fff"/><stop offset="1" stop-color="#fff" stop-opacity="0"/></linearGradient><path d="m235 108.139h-226v16.021h226z" fill="#eba7a6"/><path d="m192.553 70.4322c-3.397-10.3991-9.988-17.2726-9.988-17.2726s-1.085 9.9864 2.312 20.3856 9.988 17.2726 9.988 17.2726 1.084-9.9864-2.312-20.3856z" fill="#a3d3ca"/><path d="m204.854 73.5452c3.396-10.3992 2.312-20.3856 2.312-20.3856s-6.592 6.8735-9.988 17.2726c-3.397 10.3992-2.313 20.3856-2.313 20.3856s6.592-6.8734 9.989-17.2726z" fill="#a3d3ca"/><path d="m198.95 64.4533c0-11.0667-4.084-20.0373-4.084-20.0373s-4.083 8.9706-4.083 20.0373 4.083 20.0374 4.083 20.0374 4.084-8.9707 4.084-20.0374z" fill="#81c4b4"/><path d="m207.404 73.1014h-25.031c-.518 0-.938.4677-.938 1.0447v6.0501c0 .577.42 1.0447.938 1.0447h25.031c.518 0 .938-.4677.938-1.0447v-6.0501c0-.577-.42-1.0447-.938-1.0447z" fill="#eba7a6"/><path d="m202.47 103.124h-15.162c-.624 0-1.146-.526-1.209-1.218l-2.025-22.2839c-.073-.7977.489-1.4909 1.209-1.4909h19.213c.72 0 1.282.6932 1.209 1.4909l-2.025 22.2839c-.063.692-.585 1.218-1.209 1.218z" fill="#eba7a6"/><path d="m48.0924 92.6338s1.6208 2.5009 1.6208 5.6069c0 3.1063-1.6208 5.6073-1.6208 5.6073h31.2283l6.4053-1.982.1173-6.8112-6.5226-2.3999-31.2283-.0219z" fill="#deeffa"/><path d="m50.9833 72.4702s1.5232 2.1192 1.5232 4.7516-1.5232 4.7525-1.5232 4.7525h24.6892l3.5777-2.0157v-5.8745l-3.0645-1.5955-25.2016-.0184z" fill="#deeffa"/><path d="m48.0924 104.261c-.2046 0-.3707-.185-.3707-.413v-2.379c0-.228.1661-.413.3707-.413h34.8077c.2865-.076 2.197-.66 2.197-2.8162 0-2.8201-2.0971-3.0499-2.186-3.0578l-34.8163.2149c-.085.0017-.1936-.0421-.2637-.1202-.0701-.0772-.1094-.1825-.1094-.293v-2.3517c0-.228.1661-.4131.3707-.4131h34.8478c.0763.0052 4.8419.4728 4.8419 6.02 0 5.5471-4.7655 6.0151-4.8136 6.0191h-34.8761z" fill="#93aad4"/><path d="m90.7209 82.8024s-1.5224 2.0079-1.5224 4.5026c0 2.4946 1.5224 4.5025 1.5224 4.5025h-29.3359l-5.689-1.5912-.1102-5.4701 5.7992-1.9271 29.3359-.0176z" fill="#deeffa"/><path d="m90.6966 92.2206h-2.0073l-30.623-.0421c-.0653.0053-2.1884.1351-3.5998-1.342-.795-.8325-1.1981-1.9956-1.1981-3.4579 0-1.4622.4023-2.6359 1.195-3.4981 1.409-1.5325 3.5313-1.4947 3.621-1.4912h32.6208c.0984 0 .1929.043.2622.121.0692.0772.1086.1825.1086.2921l-.0016 2.3789c0 .2263-.1637.4105-.3676.4123l-32.6295.2956c-.0606.0026-1.7522.0965-1.7522 1.4894 0 1.393 1.7664 1.6202 1.7845 1.6219l32.5964.0404c.0984 0 .1929.0438.2622.1219.0692.0772.1078.1833.1078.293l-.0087 2.3543c-.0008.2272-.1661.4114-.3707.4114z" fill="#6475ab"/><path d="m75.7858 82.3901c-.0748 0-.1212-.0026-.1331-.0026h-24.6695c-.2046 0-.3707-.1842-.3707-.4123v-2.3789c0-.228.1661-.4131.3707-.4131h24.6892c.0134 0 .0268 0 .0402.0026.0094.0009 1.0154.1097 1.6271-.5043.3243-.3255.4888-.8167.4888-1.4579s-.1708-1.1702-.5077-1.5359c-.6203-.6755-1.6295-.6676-1.6405-.6658l-24.6947.214c-.1063-.0114-.1936-.0421-.2637-.1202-.0701-.0771-.1094-.1833-.1094-.2929v-2.3517c0-.2281.1661-.4132.3707-.4132h24.6892c.0693-.0044 2.1396-.1035 3.5628 1.4053.8486.8991 1.2792 2.1639 1.2792 3.7604s-.4306 2.8613-1.2792 3.7604c-1.2351 1.3088-2.9574 1.407-3.4486 1.407z" fill="#617db9"/><path d="m67.9059 54.5456c-.9036 0-1.6495-.2459-1.7074-.2659-.1088-.0367-.1847-.1457-.1887-.2692-.002-.0612-.0239-1.522 1.4897-2.9261 1.6105-1.4942 3.7121-.8211 3.801-.791.0839.0278.1498.099.1767.1891.016.0534.3754 1.3373-1.0443 3.0251-.6919.8222-1.6804 1.0391-2.528 1.0391z" fill="#a3d3ca"/><path d="m65.9799 57.8544h-.7079c-.1019 0-.1837-.1302-.1837-.2915v-7.1527c0-.1613.0818-.2915.1837-.2915h.7079c.1018 0 .1837.1302.1837.2915v7.1527c0 .1613-.0819.2915-.1837.2915z" fill="#6475ab"/><path d="m68.2643 71.6725c-1.2531 0-1.7573-.4528-2.1257-.7844-.2196-.1969-.3335-.2915-.5172-.2959-.1817-.0067-.2985.0923-.5231.2926-.3705.3315-.8787.7866-2.1117.7866-2.8685 0-5.4215-5.1134-5.4215-9.1442 0-4.0309 2.1067-7.0237 5.0081-7.0237 1.1193 0 1.8561.3972 2.3943.6876.2665.1435.4982.2681.6549.2681h.002c.1758 0 .4913-.1469.8247-.3004.5991-.277 1.4208-.6553 2.3493-.6553 2.8326 0 4.8883 2.9428 4.8883 6.9981s-2.5529 9.1698-5.4224 9.1698z" fill="#e37b79"/><path d="m244 103.133h-244v7.009h244z" fill="#e37b79"/><path d="m72.7277 99.8831 2.8175 2.8809c.2247.229.4813.35.7438.35h94.389c.39 0 .772-.177 1.108-.513l2.912-2.9182v-1.592h-101.9703v1.7934z" fill="#4c6fb0"/><path d="m84.2226 34.286h78.9814c1.037 0 1.878.9379 1.878 2.0928v61.4405c0 .6164-.449 1.117-1.002 1.117h-80.733c-.5532 0-1.0025-.5006-1.0025-1.117v-61.4405c0-1.1549.8417-2.0928 1.8781-2.0928z" fill="#4c6fb0"/><path d="m173.923 95.2637h-100.4205c-.6469 0-1.1712.5843-1.1712 1.3051v2.0916c0 .7208.5243 1.305 1.1712 1.305h100.4205c.647 0 1.171-.5842 1.171-1.305v-2.0916c0-.7208-.524-1.3051-1.171-1.3051z" fill="#6588c1"/><path d="m161.129 38.694h-74.8327v52.896h74.8327z" fill="#deeffa"/><path d="m123.712 54.2622c-5.717 0-10.353 5.169-10.353 11.5452 0 6.3761 4.635 11.5451 10.353 11.5451s10.353-5.169 10.353-11.5451c0-6.3762-4.635-11.5452-10.353-11.5452zm0 21.4938c-4.926 0-8.92-4.4537-8.92-9.9486 0-5.495 3.994-9.9486 8.92-9.9486s8.92 4.4536 8.92 9.9486c0 5.4949-3.994 9.9486-8.92 9.9486z" fill="#81c4b4"/><path d="m119.238 68.2139c.286.3949.669.593 1.151.593.483 0 .865-.1981 1.147-.593.281-.395.422-.9357.422-1.621v-3.5747l1.711-1.146v4.7818c0 1.2394-.307 2.1918-.921 2.856s-1.4.9969-2.359.9969c-.958 0-1.745-.3338-2.363-1.0025-.618-.6686-.926-1.6187-.926-2.8492v-3.6359l1.71-1.146v4.7207c0 .6853.143 1.2249.427 1.621z" fill="#81c4b4"/><path d="m129.519 62.6376c.537.5096.806 1.2928.806 2.3487 0 1.0558-.276 1.829-.828 2.3174-.552.4896-1.395.7343-2.528.7343h-1.02v1.2383l-1.711 1.146v-8.549h2.709c1.177 0 2.035.2548 2.572.7643zm-1.256 3.3633c.205-.257.308-.6319.308-1.1248 0-.4928-.134-.8444-.401-1.0514-.266-.208-.682-.3115-1.245-.3115h-.976v2.8738h1.151c.57 0 .957-.128 1.162-.385z" fill="#81c4b4"/><path d="m134.495 74.7246-47.643-46.5989-12.6052 7.8792 16.2055 64.7751z" fill="url(#a)" opacity=".5"/><path d="m65.5177 3.62537-.9546.61414c-.1988.12795-.4525.0522-.5673-.16941l-.9206-1.77672c-.2281-.44032-.093-1.00513.303-1.25991l.2412-.155199c.3952-.254222.902-.103697 1.1307.337589l.9205 1.77672c.1148.22161.0469.50429-.152.63224z" fill="#6475ab"/><path d="m27.3979 99.9988h4.0187v-60.22h-4.0187z" fill="#6475ab"/><path d="m43.9518 103.085h-28.9873c0-2.464 1.7952-4.4647 4.0067-4.4647h20.973c2.2115 0 4.0066 2.0007 4.0066 4.4647z" fill="#6475ab"/><path d="m65.2054 14.1619.7687 1.4842 1.2411 2.3942-50.147 32.2623-2.0099-3.8784z" fill="#6475ab"/><g fill="#93aad4"><path d="m68.1249 22.0498-5.5438-10.6998c-1.5061-2.90692-.6108-6.63043 1.9979-8.30874s5.9502-.6806 7.4563 2.22632l5.5438 10.69982z"/><path d="m65.9797 41.2869c-4.2558-8.214-1.7262-18.734 5.6451-23.4763l.9079-.5841c7.3712-4.7423 16.812-1.9235 21.0678 6.2904z"/><path d="m12.6124 48.3322 1.7497 3.3771c.3383.653 1.0876.8767 1.6735.4997l3.0307-1.9498c.5859-.3769.7867-1.2118.4484-1.8648l-1.7498-3.3771c-.3383-.6529-1.0875-.8766-1.6735-.4996l-3.0306 1.9497c-.5859.377-.7867 1.2119-.4484 1.8648z"/><path d="m29.4067 46.7168c3.4392 0 6.2272-3.1067 6.2272-6.9391 0-3.8323-2.788-6.9391-6.2272-6.9391s-6.2272 3.1068-6.2272 6.9391c0 3.8324 2.788 6.9391 6.2272 6.9391z"/></g><path d="m29.4067 42.6181c1.4078 0 2.549-1.2717 2.549-2.8404s-1.1412-2.8404-2.549-2.8404-2.549 1.2717-2.549 2.8404 1.1412 2.8404 2.549 2.8404z" fill="#6475ab"/></svg>

<svg width="244" height="125" viewBox="0 0 244 125" fill="none" xmlns="http://www.w3.org/2000/svg">
  <path d="M235 108.139H9V124.16H235V108.139Z" fill="#EBA7A6"/>
  <path d="M192.553 70.4322C189.156 60.0331 182.565 53.1596 182.565 53.1596C182.565 53.1596 181.48 63.146 184.877 73.5452C188.274 83.9444 194.865 90.8178 194.865 90.8178C194.865 90.8178 195.949 80.8314 192.553 70.4322Z" fill="#A3D3CA"/>
  <path d="M204.854 73.5452C208.25 63.146 207.166 53.1596 207.166 53.1596C207.166 53.1596 200.574 60.0331 197.178 70.4322C193.781 80.8314 194.865 90.8178 194.865 90.8178C194.865 90.8178 201.457 83.9444 204.854 73.5452Z" fill="#A3D3CA"/>
  <path d="M198.95 64.4533C198.95 53.3866 194.866 44.416 194.866 44.416C194.866 44.416 190.783 53.3866 190.783 64.4533C190.783 75.52 194.866 84.4907 194.866 84.4907C194.866 84.4907 198.95 75.52 198.95 64.4533Z" fill="#81C4B4"/>
  <path d="M207.404 73.1014H182.373C181.855 73.1014 181.435 73.5691 181.435 74.1461V80.1962C181.435 80.7732 181.855 81.2409 182.373 81.2409H207.404C207.922 81.2409 208.342 80.7732 208.342 80.1962V74.1461C208.342 73.5691 207.922 73.1014 207.404 73.1014Z" fill="#EBA7A6"/>
  <path d="M202.47 103.124H187.308C186.684 103.124 186.162 102.598 186.099 101.906L184.074 79.6221C184.001 78.8244 184.563 78.1312 185.283 78.1312H204.496C205.216 78.1312 205.778 78.8244 205.705 79.6221L203.68 101.906C203.617 102.598 203.095 103.124 202.471 103.124H202.47Z" fill="#EBA7A6"/>
  <path d="M48.0924 92.6338C48.0924 92.6338 49.7132 95.1347 49.7132 98.2407C49.7132 101.347 48.0924 103.848 48.0924 103.848H79.3207L85.726 101.866L85.8433 95.0548L79.3207 92.6549L48.0924 92.633V92.6338Z" fill="#DEEFFA"/>
  <path d="M50.9833 72.4702C50.9833 72.4702 52.5065 74.5894 52.5065 77.2218C52.5065 79.8542 50.9833 81.9743 50.9833 81.9743H75.6725L79.2502 79.9586V74.0841L76.1857 72.4886L50.9841 72.4702H50.9833Z" fill="#DEEFFA"/>
  <path d="M48.0924 104.261C47.8878 104.261 47.7217 104.076 47.7217 103.848V101.469C47.7217 101.241 47.8878 101.056 48.0924 101.056H82.9001C83.1866 100.98 85.0971 100.396 85.0971 98.2398C85.0971 95.4197 83 95.1899 82.9111 95.182L48.0948 95.3969C48.0098 95.3986 47.9012 95.3548 47.8311 95.2767C47.761 95.1995 47.7217 95.0942 47.7217 94.9837V92.632C47.7217 92.404 47.8878 92.2189 48.0924 92.2189H82.9402C83.0165 92.2241 87.7821 92.6917 87.7821 98.2389C87.7821 103.786 83.0166 104.254 82.9685 104.258H48.0924V104.261Z" fill="#93AAD4"/>
  <path d="M90.7209 82.8024C90.7209 82.8024 89.1985 84.8103 89.1985 87.305C89.1985 89.7996 90.7209 91.8075 90.7209 91.8075H61.385L55.696 90.2163L55.5858 84.7462L61.385 82.8191L90.7209 82.8015V82.8024Z" fill="#DEEFFA"/>
  <path d="M90.6966 92.2206H88.6893L58.0663 92.1785C58.001 92.1838 55.8779 92.3136 54.4665 90.8365C53.6715 90.004 53.2684 88.8409 53.2684 87.3786C53.2684 85.9164 53.6707 84.7427 54.4634 83.8805C55.8724 82.348 57.9947 82.3858 58.0844 82.3893H90.7052C90.8036 82.3893 90.8981 82.4323 90.9674 82.5103C91.0366 82.5875 91.076 82.6928 91.076 82.8024L91.0744 85.1813C91.0744 85.4076 90.9107 85.5918 90.7068 85.5936L58.0773 85.8892C58.0167 85.8918 56.3251 85.9857 56.3251 87.3786C56.3251 88.7716 58.0915 88.9988 58.1096 89.0005L90.706 89.0409C90.8044 89.0409 90.8989 89.0847 90.9682 89.1628C91.0374 89.24 91.076 89.3461 91.076 89.4558L91.0673 91.8101C91.0665 92.0373 90.9012 92.2215 90.6966 92.2215V92.2206Z" fill="#6475AB"/>
  <path d="M75.7858 82.3901C75.711 82.3901 75.6646 82.3875 75.6527 82.3875H50.9832C50.7786 82.3875 50.6125 82.2033 50.6125 81.9752V79.5963C50.6125 79.3683 50.7786 79.1832 50.9832 79.1832H75.6724C75.6858 79.1832 75.6992 79.1832 75.7126 79.1858C75.722 79.1867 76.728 79.2955 77.3397 78.6815C77.664 78.356 77.8285 77.8648 77.8285 77.2236C77.8285 76.5824 77.6577 76.0534 77.3208 75.6877C76.7005 75.0122 75.6913 75.0201 75.6803 75.0219L50.9856 75.2359C50.8793 75.2245 50.792 75.1938 50.7219 75.1157C50.6518 75.0386 50.6125 74.9324 50.6125 74.8228V72.4711C50.6125 72.243 50.7786 72.0579 50.9832 72.0579H75.6724C75.7417 72.0535 77.812 71.9544 79.2352 73.4632C80.0838 74.3623 80.5144 75.6271 80.5144 77.2236C80.5144 78.8201 80.0838 80.0849 79.2352 80.984C78.0001 82.2928 76.2778 82.391 75.7866 82.391L75.7858 82.3901Z" fill="#617DB9"/>
  <path d="M67.9059 54.5456C67.0023 54.5456 66.2564 54.2997 66.1985 54.2797C66.0897 54.243 66.0138 54.134 66.0098 54.0105C66.0078 53.9493 65.9859 52.4885 67.4995 51.0844C69.11 49.5902 71.2116 50.2633 71.3005 50.2934C71.3844 50.3212 71.4503 50.3924 71.4772 50.4825C71.4932 50.5359 71.8526 51.8198 70.4329 53.5076C69.741 54.3298 68.7525 54.5467 67.9049 54.5467L67.9059 54.5456Z" fill="#A3D3CA"/>
  <path d="M65.9799 57.8544H65.272C65.1701 57.8544 65.0883 57.7242 65.0883 57.5629V50.4102C65.0883 50.2489 65.1701 50.1187 65.272 50.1187H65.9799C66.0817 50.1187 66.1636 50.2489 66.1636 50.4102V57.5629C66.1636 57.7242 66.0817 57.8544 65.9799 57.8544Z" fill="#6475AB"/>
  <path d="M68.2643 71.6725C67.0112 71.6725 66.507 71.2197 66.1386 70.8881C65.919 70.6912 65.8051 70.5966 65.6214 70.5922C65.4397 70.5855 65.3229 70.6845 65.0983 70.8848C64.7278 71.2163 64.2196 71.6714 62.9866 71.6714C60.1181 71.6714 57.5651 66.558 57.5651 62.5272C57.5651 58.4963 59.6718 55.5035 62.5732 55.5035C63.6925 55.5035 64.4293 55.9007 64.9675 56.1911C65.234 56.3346 65.4657 56.4592 65.6224 56.4592H65.6244C65.8002 56.4592 66.1157 56.3123 66.4491 56.1588C67.0482 55.8818 67.8699 55.5035 68.7984 55.5035C71.631 55.5035 73.6867 58.4463 73.6867 62.5016C73.6867 66.5569 71.1338 71.6714 68.2643 71.6714V71.6725Z" fill="#E37B79"/>
  <path d="M244 103.133H0V110.142H244V103.133Z" fill="#E37B79"/>
  <path d="M72.7277 99.8831L75.5452 102.764C75.7699 102.993 76.0265 103.114 76.289 103.114H170.678C171.068 103.114 171.45 102.937 171.786 102.601L174.698 99.6828V98.0908H72.7277V99.8842V99.8831Z" fill="#4C6FB0"/>
  <path d="M84.2226 34.286H163.204C164.241 34.286 165.082 35.2239 165.082 36.3788V97.8193C165.082 98.4357 164.633 98.9363 164.08 98.9363H83.347C82.7938 98.9363 82.3445 98.4357 82.3445 97.8193V36.3788C82.3445 35.2239 83.1862 34.286 84.2226 34.286V34.286Z" fill="#4C6FB0"/>
  <path d="M173.923 95.2637H73.5025C72.8556 95.2637 72.3313 95.848 72.3313 96.5688V98.6604C72.3313 99.3812 72.8556 99.9654 73.5025 99.9654H173.923C174.57 99.9654 175.094 99.3812 175.094 98.6604V96.5688C175.094 95.848 174.57 95.2637 173.923 95.2637Z" fill="#6588C1"/>
  <path d="M161.129 38.694H86.2963V91.59H161.129V38.694Z" fill="#DEEFFA"/>
  <path d="M123.712 54.2622C117.995 54.2622 113.359 59.4312 113.359 65.8074C113.359 72.1835 117.994 77.3525 123.712 77.3525C129.43 77.3525 134.065 72.1835 134.065 65.8074C134.065 59.4312 129.43 54.2622 123.712 54.2622V54.2622ZM123.712 75.756C118.786 75.756 114.792 71.3023 114.792 65.8074C114.792 60.3124 118.786 55.8588 123.712 55.8588C128.638 55.8588 132.632 60.3124 132.632 65.8074C132.632 71.3023 128.638 75.756 123.712 75.756Z" fill="#81C4B4"/>
  <path d="M119.238 68.2139C119.524 68.6088 119.907 68.8069 120.389 68.8069C120.872 68.8069 121.254 68.6088 121.536 68.2139C121.817 67.8189 121.958 67.2782 121.958 66.5929V63.0182L123.669 61.8722V66.654C123.669 67.8934 123.362 68.8458 122.748 69.51C122.134 70.1742 121.348 70.5069 120.389 70.5069C119.431 70.5069 118.644 70.1731 118.026 69.5044C117.408 68.8358 117.1 67.8857 117.1 66.6552V63.0193L118.81 61.8733V66.594C118.81 67.2793 118.953 67.8189 119.237 68.215L119.238 68.2139Z" fill="#81C4B4"/>
  <path d="M129.519 62.6376C130.056 63.1472 130.325 63.9304 130.325 64.9863C130.325 66.0421 130.049 66.8153 129.497 67.3037C128.945 67.7933 128.102 68.038 126.969 68.038H125.949V69.2763L124.238 70.4223V61.8733H126.947C128.124 61.8733 128.982 62.1281 129.519 62.6376ZM128.263 66.0009C128.468 65.7439 128.571 65.369 128.571 64.8761C128.571 64.3833 128.437 64.0317 128.17 63.8247C127.904 63.6167 127.488 63.5132 126.925 63.5132H125.949V66.387H127.1C127.67 66.387 128.057 66.259 128.262 66.002L128.263 66.0009Z" fill="#81C4B4"/>
  <path opacity="0.5" d="M134.495 74.7246L86.852 28.1257L74.2468 36.0049L90.4523 100.78L134.495 74.7246Z" fill="url(#paint0_linear_1_1010)"/>
  <path d="M65.5177 3.62537L64.5631 4.23951C64.3643 4.36746 64.1106 4.29171 63.9958 4.0701L63.0752 2.29338C62.8471 1.85306 62.9822 1.28825 63.3782 1.03347L63.6194 0.878271C64.0146 0.624049 64.5214 0.774574 64.7501 1.21586L65.6706 2.99258C65.7854 3.21419 65.7175 3.49687 65.5186 3.62482L65.5177 3.62537Z" fill="#6475AB"/>
  <path d="M27.3979 99.9988H31.4166L31.4166 39.7788H27.3979L27.3979 99.9988Z" fill="#6475AB"/>
  <path d="M43.9518 103.085H14.9645C14.9645 100.621 16.7597 98.6203 18.9712 98.6203H39.9442C42.1557 98.6203 43.9508 100.621 43.9508 103.085H43.9518Z" fill="#6475AB"/>
  <path d="M65.2054 14.1619L65.9741 15.6461L67.2152 18.0403L17.0682 50.3026L15.0583 46.4242L65.2054 14.1619Z" fill="#6475AB"/>
  <path d="M68.1249 22.0498L62.5811 11.35C61.075 8.44308 61.9703 4.71957 64.579 3.04126C67.1877 1.36295 70.5292 2.36066 72.0353 5.26758L77.5791 15.9674L68.1249 22.0498Z" fill="#93AAD4"/>
  <path d="M65.9797 41.2869C61.7239 33.0729 64.2535 22.5529 71.6248 17.8106L72.5327 17.2265C79.9039 12.4842 89.3447 15.303 93.6005 23.5169L65.9797 41.2869Z" fill="#93AAD4"/>
  <path d="M12.6124 48.3322L14.3621 51.7093C14.7004 52.3623 15.4497 52.586 16.0356 52.209L19.0663 50.2592C19.6522 49.8823 19.853 49.0474 19.5147 48.3944L17.7649 45.0173C17.4266 44.3644 16.6774 44.1407 16.0914 44.5177L13.0608 46.4674C12.4749 46.8444 12.2741 47.6793 12.6124 48.3322Z" fill="#93AAD4"/>
  <path d="M29.4067 46.7168C32.8459 46.7168 35.6339 43.6101 35.6339 39.7777C35.6339 35.9454 32.8459 32.8386 29.4067 32.8386C25.9675 32.8386 23.1795 35.9454 23.1795 39.7777C23.1795 43.6101 25.9675 46.7168 29.4067 46.7168Z" fill="#93AAD4"/>
  <path d="M29.4067 42.6181C30.8145 42.6181 31.9557 41.3464 31.9557 39.7777C31.9557 38.209 30.8145 36.9373 29.4067 36.9373C27.9989 36.9373 26.8577 38.209 26.8577 39.7777C26.8577 41.3464 27.9989 42.6181 29.4067 42.6181Z" fill="#6475AB"/>
  <defs>
    <linearGradient id="paint0_linear_1_1010" x1="96.4079" y1="55.7271" x2="112.159" y2="80.9875" gradientUnits="userSpaceOnUse">
      <stop stop-color="white"/>
      <stop offset="1" stop-color="white" stop-opacity="0"/>
    </linearGradient>
  </defs>
</svg>
